src/assets/selectIcons/amuleto_5.svg

<svg xmlns="http://www.w3.org/2000/svg" viewBox="0 0 512 512" style="height: 512px; width: 512px;"><path d="M0 0h512v512H0z" fill="#000" fill-opacity="1"></path><g class="" transform="translate(0,0)" style=""><path d="M73.09 23.21h1.2c6.9.31 12.8 4.74 17.2 9.89 5.4 6.35 9.41 14.82 11.71 24.59 2.4 9.77 2.7 19.13.8 27.22-.5 2.17-1.2 4.35-2.1 6.42 5.2.24 10.3 2.59 14.6 5.6 6.7 4.87 12.7 12.07 17.4 20.97 4.7 8.9 7.3 17.9 7.6 26.2.1 5.8-1 11.9-4.5 16.6 6.6-1.7 13.5.4 19.1 3.8 7.2 4.2 13.7 10.9 19.2 19.4 5.4 8.4 8.8 17.2 9.7 25.4.3 3 .3 6.1-.2 9.1 5-.8 10.3.3 15 2.1 7.6 3.1 15.1 8.7 21.8 16.3 6.6 7.5 11.3 15.6 13.4 23.7 1.1 4 1.6 8.4.9 12.6 5.6-3.2 12.5-4.8 20.1-4.8 7.7 0 14.5 1.6 20.2 4.8-.7-4.1-.3-8.5.8-12.6 2.2-8.1 6.8-16.2 13.5-23.8 6.6-7.6 14.1-13.1 21.9-16.3 4.6-1.9 9.9-2.9 14.9-2.1-.5-3-.5-6.1-.2-9 .9-8.3 4.2-17 9.7-25.5 5.5-8.5 12-15.1 19.2-19.4 5.6-3.3 12.4-5.5 18.8-3.8-3.3-4.7-4.4-10.8-4.3-16.6.2-8.3 2.8-17.3 7.5-26.1 4.7-9 10.7-16.1 17.5-20.94 4.2-3.09 9.3-5.46 14.6-5.7-.9-2.04-1.6-4.18-2.1-6.32-1.8-8.07-1.6-17.43.8-27.2 2.3-9.76 6.3-18.22 11.7-24.57 5.3-6.36 13.2-11.59 22.2-9.42s13.6 10.39 15.4 18.48c1.9 8.09 1.6 17.46-.7 27.23-2.4 9.77-6.4 18.24-11.7 24.56-4.5 5.29-10.5 9.78-17.6 9.98 1.2 3.5 1.7 7.4 1.5 11.1-.1 8.3-2.7 17.2-7.4 26.2-4.7 8.8-10.7 16-17.4 20.8-5.8 4.2-13 7-20.1 5.2 3.7 5.1 4.5 11.8 3.9 18.1-1 8.3-4.3 17-9.8 25.5-5.4 8.5-12 15.1-19.1 19.4-5.2 3-11.4 5.1-17.3 4.1.5 3.9 0 7.9-1 11.7-2.2 8-6.8 16.1-13.5 23.7-6.6 7.6-14.1 13.1-21.9 16.3-5 2-10.8 3.1-16.2 1.9 1.1 2.1 2 4.3 2.7 6.5.7 2.1 1.3 4.2 1.8 6.3-6.4.7-12.2 2.1-17.5 4.2-.4-1.7-.8-3.4-1.3-4.9-1.7-4.8-3.8-8.1-6.5-10.2-2.8-2.1-6.5-3.6-13-3.6s-10.2 1.5-13 3.6c-2.7 2.1-4.8 5.4-6.5 10.2-.5 1.5-.9 3.2-1.3 4.9-5.3-2.1-11.1-3.5-17.5-4.2.5-2.1 1.1-4.2 1.8-6.3.7-2.2 1.6-4.4 2.6-6.4-5.3 1.1-11.1 0-16.1-2-7.7-3.1-15.2-8.7-21.9-16.2-6.6-7.6-11.3-15.7-13.4-23.7-1-3.8-1.5-7.9-1-11.7-6 1-12.2-1.1-17.3-4.2-7.2-4.2-13.7-10.9-19.2-19.4-5.4-8.4-8.8-17.2-9.7-25.4-.7-6.3.1-13 3.8-18.2-7.1 1.9-14.3-1-20.1-5-6.8-4.9-12.71-12.1-17.51-21-4.7-8.9-7.3-17.8-7.5-26.2 0-3.7.4-7.6 1.7-11.2-7.1-.2-13.2-4.66-17.6-9.87-5.3-6.36-9.3-14.83-11.7-24.6-2.3-9.77-2.6-19.13-.8-27.22 2-8.11 6.5-16.32 15.5-18.49 1.3-.31 2.5-.47 3.8-.51zm-1.8 23.09c-.9 4.5-1 11.54.8 18.95 1.8 7.4 5 13.65 8 17.21 2.4 2.85 3.9 3.31 4.1 3.25.3-.1 1.4-1.17 2.3-4.79.9-4.51 1-11.54-.8-18.95s-5-13.65-7.9-17.22c-2.5-2.84-4-3.31-4.3-3.25-.2.1-1.3 1.17-2.2 4.8zm363.01-1.55c-3 3.55-6.2 9.8-8 17.21-1.8 7.41-1.8 14.44-.7 18.96.8 3.54 1.9 4.68 2.2 4.75.3.1 1.8-.45 4.1-3.23 3-3.54 6.2-9.8 8-17.2 1.8-7.41 1.8-14.44.7-18.96-.8-3.55-1.9-4.69-2.2-4.76-.3-.1-1.8.45-4.1 3.23zm-28.4 66.75c-3.8 2.7-8.4 8-12 14.7-3.5 6.7-5.3 13.5-5.4 18.2-.1 3.6.7 5 1 5.1.2.2 1.8 0 4.8-2.1 3.8-2.7 8.4-7.9 12-14.7 3.5-6.7 5.3-13.5 5.4-18.1.1-3.5-.7-5-.9-5.2-.3-.1-1.9 0-4.9 2.1zm-305.7 3.1c.2 4.6 1.9 11.5 5.4 18.2 3.6 6.7 8.3 12 12 14.7 3 2.2 4.6 2.3 5 2.3.1-.2.9-1.5.9-5.4-.2-4.6-1.9-11.4-5.5-18.2-3.5-6.7-8.2-11.9-12-14.7-3.1-2.2-4.6-2.2-4.9-2.1-.2.1-1 1.5-.9 5.2zm265 65.2c-4.1 2.4-9.1 7.2-13.3 13.6-4.1 6.4-6.4 13.1-6.9 17.7-.4 3.6.3 5 .6 5.2.2.2 1.8.2 4.9-1.7 4-2.3 9.1-7.2 13.2-13.6 4.1-6.4 6.4-13 6.9-17.7.5-3.6-.2-5-.4-5.2-.3-.2-1.9-.1-5 1.7zM141.8 178c-.2.4-.8 1.8-.4 5.4.6 4.6 2.8 11.3 7 17.7 4.1 6.4 9.2 11.2 13.1 13.6 3.4 2 5 1.8 5.2 1.7.1-.1.8-1.6.4-5.2-.6-4.6-2.8-11.3-7-17.7-4.1-6.4-9.2-11.2-13.2-13.6-3.4-2-4.9-1.8-5.1-1.9zm177.3 59.1c-4.4 1.7-10.1 5.7-15.1 11.4-5.1 5.7-8.3 11.9-9.6 16.4-.9 3.6-.5 5.1-.2 5.3.2.2 1.8.4 5.1-.9 4.4-1.8 10.1-5.8 15.1-11.5 5.1-5.7 8.3-11.9 9.6-16.4.9-3.5.5-5.1.3-5.3-.3-.2-1.9-.4-5.2 1zm-131 4.4c1.2 4.4 4.5 10.6 9.5 16.4 5.1 5.7 10.8 9.7 15.1 11.5 3.5 1.4 5 1.1 5.2.9.2-.2.7-1.6-.3-5.3-1.2-4.5-4.5-10.7-9.5-16.4-5-5.7-10.8-9.7-15.1-11.5-3.5-1.4-5-1.1-5.2-.9-.2.2-.6 1.8.3 5.3zM304 318.3c13 0 31.8 5.9 38.5 16 6.7 10.1 10.5 24.5 10.5 39 0 20-24.2 42.6-43.7 63.9-17.1 18.9-37.4 36.4-53.3 51.6-15.9-15.2-36.2-32.7-53.3-51.6-19.5-21.3-43.7-43.9-43.7-63.9 0-14.5 3.8-28.9 10.5-39 6.7-10.1 25.5-16 38.5-16 14.5 0 21.6 2.8 29.6 9.4 9.8 8 17.4 33.1 18.4 33.1s8.6-25.1 18.4-33.1c8-6.6 15.1-9.4 29.6-9.4z" fill="#fff" fill-opacity="1"></path></g></svg>

<?xml version="1.0" encoding="UTF-8" standalone="no"?>
<!DOCTYPE svg PUBLIC "-//W3C//DTD SVG 1.1//EN" "http://www.w3.org/Graphics/SVG/1.1/DTD/svg11.dtd">
<svg width="100%" height="100%" viewBox="0 0 512 512" version="1.1" xmlns="http://www.w3.org/2000/svg" xmlns:xlink="http://www.w3.org/1999/xlink" xml:space="preserve" xmlns:serif="http://www.serif.com/" style="fill-rule:evenodd;clip-rule:evenodd;stroke-linejoin:round;stroke-miterlimit:2;">
    <rect x="0" y="0" width="512" height="512" style="fill-rule:nonzero;"/>
    <g>
        <path d="M73.09,23.21L74.29,23.21C81.19,23.52 87.09,27.95 91.49,33.1C96.89,39.45 100.9,47.92 103.2,57.69C105.6,67.46 105.9,76.82 104,84.91C103.5,87.08 102.8,89.26 101.9,91.33C107.1,91.57 112.2,93.92 116.5,96.93C123.2,101.8 129.2,109 133.9,117.9C138.6,126.8 141.2,135.8 141.5,144.1C141.6,149.9 140.5,156 137,160.7C143.6,159 150.5,161.1 156.1,164.5C163.3,168.7 169.8,175.4 175.3,183.9C180.7,192.3 184.1,201.1 185,209.3C185.3,212.3 185.3,215.4 184.8,218.4C189.8,217.6 195.1,218.7 199.8,220.5C207.4,223.6 214.9,229.2 221.6,236.8C228.2,244.3 232.9,252.4 235,260.5C236.1,264.5 236.6,268.9 235.9,273.1C241.5,269.9 248.4,268.3 256,268.3C263.7,268.3 270.5,269.9 276.2,273.1C275.5,269 275.9,264.6 277,260.5C279.2,252.4 283.8,244.3 290.5,236.7C297.1,229.1 304.6,223.6 312.4,220.4C317,218.5 322.3,217.5 327.3,218.3C326.8,215.3 326.8,212.2 327.1,209.3C328,201 331.3,192.3 336.8,183.8C342.3,175.3 348.8,168.7 356,164.4C361.6,161.1 368.4,158.9 374.8,160.6C371.5,155.9 370.4,149.8 370.5,144C370.7,135.7 373.3,126.7 378,117.9C382.7,108.9 388.7,101.8 395.5,96.96C399.7,93.87 404.8,91.5 410.1,91.26C409.2,89.22 408.5,87.08 408,84.94C406.2,76.87 406.4,67.51 408.8,57.74C411.1,47.98 415.1,39.52 420.5,33.17C425.8,26.81 433.7,21.58 442.7,23.75C451.7,25.92 456.3,34.14 458.1,42.23C460,50.32 459.7,59.69 457.4,69.46C455,79.23 451,87.7 445.7,94.02C441.2,99.31 435.2,103.8 428.1,104C429.3,107.5 429.8,111.4 429.6,115.1C429.5,123.4 426.9,132.3 422.2,141.3C417.5,150.1 411.5,157.3 404.8,162.1C399,166.3 391.8,169.1 384.7,167.3C388.4,172.4 389.2,179.1 388.6,185.4C387.6,193.7 384.3,202.4 378.8,210.9C373.4,219.4 366.8,226 359.7,230.3C354.5,233.3 348.3,235.4 342.4,234.4C342.9,238.3 342.4,242.3 341.4,246.1C339.2,254.1 334.6,262.2 327.9,269.8C321.3,277.4 313.8,282.9 306,286.1C301,288.1 295.2,289.2 289.8,288C290.9,290.1 291.8,292.3 292.5,294.5C293.2,296.6 293.8,298.7 294.3,300.8C287.9,301.5 282.1,302.9 276.8,305C276.4,303.3 276,301.6 275.5,300.1C273.8,295.3 271.7,292 269,289.9C266.2,287.8 262.5,286.3 256,286.3C249.5,286.3 245.8,287.8 243,289.9C240.3,292 238.2,295.3 236.5,300.1C236,301.6 235.6,303.3 235.2,305C229.9,302.9 224.1,301.5 217.7,300.8C218.2,298.7 218.8,296.6 219.5,294.5C220.2,292.3 221.1,290.1 222.1,288.1C216.8,289.2 211,288.1 206,286.1C198.3,283 190.8,277.4 184.1,269.9C177.5,262.3 172.8,254.2 170.7,246.2C169.7,242.4 169.2,238.3 169.7,234.5C163.7,235.5 157.5,233.4 152.4,230.3C145.2,226.1 138.7,219.4 133.2,210.9C127.8,202.5 124.4,193.7 123.5,185.5C122.8,179.2 123.6,172.5 127.3,167.3C120.2,169.2 113,166.3 107.2,162.3C100.4,157.4 94.49,150.2 89.69,141.3C84.99,132.4 82.39,123.5 82.19,115.1C82.19,111.4 82.59,107.5 83.89,103.9C76.79,103.7 70.69,99.24 66.29,94.03C60.99,87.67 56.99,79.2 54.59,69.43C52.29,59.66 51.99,50.3 53.79,42.21C55.79,34.1 60.29,25.89 69.29,23.72C70.59,23.41 71.79,23.25 73.09,23.21ZM71.29,46.3C70.39,50.8 70.29,57.84 72.09,65.25C73.89,72.65 77.09,78.9 80.09,82.46C82.49,85.31 83.99,85.77 84.19,85.71C84.49,85.61 85.59,84.54 86.49,80.92C87.39,76.41 87.49,69.38 85.69,61.97C83.89,54.56 80.69,48.32 77.79,44.75C75.29,41.91 73.79,41.44 73.49,41.5C73.29,41.6 72.19,42.67 71.29,46.3ZM434.3,44.75C431.3,48.3 428.1,54.55 426.3,61.96C424.5,69.37 424.5,76.4 425.6,80.92C426.4,84.46 427.5,85.6 427.8,85.67C428.1,85.77 429.6,85.22 431.9,82.44C434.9,78.9 438.1,72.64 439.9,65.24C441.7,57.83 441.7,50.8 440.6,46.28C439.8,42.73 438.7,41.59 438.4,41.52C438.1,41.42 436.6,41.97 434.3,44.75ZM405.9,111.5C402.1,114.2 397.5,119.5 393.9,126.2C390.4,132.9 388.6,139.7 388.5,144.4C388.4,148 389.2,149.4 389.5,149.5C389.7,149.7 391.3,149.5 394.3,147.4C398.1,144.7 402.7,139.5 406.3,132.7C409.8,126 411.6,119.2 411.7,114.6C411.8,111.1 411,109.6 410.8,109.4C410.5,109.3 408.9,109.4 405.9,111.5ZM100.2,114.6C100.4,119.2 102.1,126.1 105.6,132.8C109.2,139.5 113.9,144.8 117.6,147.5C120.6,149.7 122.2,149.8 122.6,149.8C122.7,149.6 123.5,148.3 123.5,144.4C123.3,139.8 121.6,133 118,126.2C114.5,119.5 109.8,114.3 106,111.5C102.9,109.3 101.4,109.3 101.1,109.4C100.9,109.5 100.1,110.9 100.2,114.6ZM365.2,179.8C361.1,182.2 356.1,187 351.9,193.4C347.8,199.8 345.5,206.5 345,211.1C344.6,214.7 345.3,216.1 345.6,216.3C345.8,216.5 347.4,216.5 350.5,214.6C354.5,212.3 359.6,207.4 363.7,201C367.8,194.6 370.1,188 370.6,183.3C371.1,179.7 370.4,178.3 370.2,178.1C369.9,177.9 368.3,178 365.2,179.8ZM141.8,178C141.6,178.4 141,179.8 141.4,183.4C142,188 144.2,194.7 148.4,201.1C152.5,207.5 157.6,212.3 161.5,214.7C164.9,216.7 166.5,216.5 166.7,216.4C166.8,216.3 167.5,214.8 167.1,211.2C166.5,206.6 164.3,199.9 160.1,193.5C156,187.1 150.9,182.3 146.9,179.9C143.5,177.9 142,178.1 141.8,178ZM319.1,237.1C314.7,238.8 309,242.8 304,248.5C298.9,254.2 295.7,260.4 294.4,264.9C293.5,268.5 293.9,270 294.2,270.2C294.4,270.4 296,270.6 299.3,269.3C303.7,267.5 309.4,263.5 314.4,257.8C319.5,252.1 322.7,245.9 324,241.4C324.9,237.9 324.5,236.3 324.3,236.1C324,235.9 322.4,235.7 319.1,237.1ZM188.1,241.5C189.3,245.9 192.6,252.1 197.6,257.9C202.7,263.6 208.4,267.6 212.7,269.4C216.2,270.8 217.7,270.5 217.9,270.3C218.1,270.1 218.6,268.7 217.6,265C216.4,260.5 213.1,254.3 208.1,248.6C203.1,242.9 197.3,238.9 193,237.1C189.5,235.7 188,236 187.8,236.2C187.6,236.4 187.2,238 188.1,241.5Z" style="fill:rgb(200,179,134);fill-rule:nonzero;"/>
        <path d="M304,318.3C317,318.3 335.8,324.2 342.5,334.3C349.2,344.4 353,358.8 353,373.3C353,393.3 328.8,415.9 309.3,437.2C292.2,456.1 271.9,473.6 256,488.8C240.1,473.6 219.8,456.1 202.7,437.2C183.2,415.9 159,393.3 159,373.3C159,358.8 162.8,344.4 169.5,334.3C176.2,324.2 195,318.3 208,318.3C222.5,318.3 229.6,321.1 237.6,327.7C247.4,335.7 255,360.8 256,360.8C257,360.8 264.6,335.7 274.4,327.7C282.4,321.1 289.5,318.3 304,318.3Z" style="fill:rgb(255,0,76);"/>
    </g>
</svg>
